icon/fa/bridge-circle-xmark.svg

<svg xmlns="http://www.w3.org/2000/svg" viewBox="0 0 640 512"><!--! Font Awesome Free 6.1.2 by @fontawesome - https://fontawesome.com License - https://fontawesome.com/license/free (Icons: CC BY 4.0, Fonts: SIL OFL 1.1, Code: MIT License) Copyright 2022 Fonticons, Inc.--><path d="M576 32c17.7 0 32 14.33 32 32s-14.3 32-32 32h-40v64h72v72.2c-30.4-25.1-69.5-40.2-112-40.2-69.1 0-128.9 39.8-157.7 97.7-5.9-1.1-12-1.7-18.3-1.7-53.9 0-96 42.1-96 96v64c0 17.7-14.3 32-32 32h-32c-17.7 0-32-14.3-32-32v-64c0-53.9-42.98-96-96-96V160h72V96H64c-17.67 0-32-14.33-32-32s14.33-32 32-32h512zm-88 64h-80v64h80V96zm-208 0v64h80V96h-80zm-48 0h-80v64h80V96zm120 272c0-79.5 64.5-144 144-144s144 64.5 144 144-64.5 144-144 144-144-64.5-144-144zm203.3-36.7c6.3-6.2 6.3-16.4 0-22.6-6.2-6.3-16.4-6.3-22.6 0L496 345.4l-36.7-36.7c-6.2-6.3-16.4-6.3-22.6 0-6.3 6.2-6.3 16.4 0 22.6l36.7 36.7-36.7 36.7c-6.3 6.2-6.3 16.4 0 22.6 6.2 6.3 16.4 6.3 22.6 0l36.7-36.7 36.7 36.7c6.2 6.3 16.4 6.3 22.6 0 6.3-6.2 6.3-16.4 0-22.6L518.6 368l36.7-36.7z"/></svg>

<svg xmlns="http://www.w3.org/2000/svg" viewBox="0 0 640 512" height="1em" width="1em">
<!--! Font Awesome Free 6.1.2 by @fontawesome - https://fontawesome.com License - https://fontawesome.com/license/free (Icons: CC BY 4.0, Fonts: SIL OFL 1.1, Code: MIT License) Copyright 2022 Fonticons, Inc.-->
  <path d="M576 32C593.7 32 608 46.33 608 64C608 81.67 593.7 96 576 96H536V160H608V232.2C577.6 207.1 538.5 192 496 192C426.9 192 367.1 231.8 338.3 289.7C332.4 288.6 326.3 288 320 288C266.1 288 224 330.1 224 384V448C224 465.7 209.7 480 192 480H160C142.3 480 128 465.7 128 448V384C128 330.1 85.02 288 32 288V160H104V96H64C46.33 96 32 81.67 32 64C32 46.33 46.33 32 64 32H576zM488 96H408V160H488V96zM280 96V160H360V96H280zM232 96H152V160H232V96zM352 368C352 288.5 416.5 224 496 224C575.5 224 640 288.5 640 368C640 447.5 575.5 512 496 512C416.5 512 352 447.5 352 368zM555.3 331.3C561.6 325.1 561.6 314.9 555.3 308.7C549.1 302.4 538.9 302.4 532.7 308.7L496 345.4L459.3 308.7C453.1 302.4 442.9 302.4 436.7 308.7C430.4 314.9 430.4 325.1 436.7 331.3L473.4 368L436.7 404.7C430.4 410.9 430.4 421.1 436.7 427.3C442.9 433.6 453.1 433.6 459.3 427.3L496 390.6L532.7 427.3C538.9 433.6 549.1 433.6 555.3 427.3C561.6 421.1 561.6 410.9 555.3 404.7L518.6 368L555.3 331.3z"/>
</svg>
